X: 3003
Q:"Strathspey."
M: C
L: 1/16
K: D
[|\
vAuF3 vd3uB vA3vFuE3uD | E3FG3E F3D {C}B,4 |\
d3ed3A BdBA F2A2 | B3cd3F (GF)ED B,4 |\
d3ed3A BdBA F2A2 |
(d2ef) e3d Tc3B A4 |\
d3ed3A BdBA F2A2 | B3cd3F (GF)ED B,4 |\


